src/assets/icons/sax/IconTable.svg

<svg width="20" height="20" viewBox="0 0 24 24" fill="none" xmlns="http://www.w3.org/2000/svg">
<path d="M19.9 9.875H4.1C2.6 9.875 2 10.195 2 10.99V13.01C2 13.805 2.6 14.125 4.1 14.125H19.9C21.4 14.125 22 13.805 22 13.01V10.99C22 10.195 21.4 9.875 19.9 9.875Z" stroke="currentColor" stroke-width="1.5" stroke-linecap="round" stroke-linejoin="round"/>
<path d="M19.9 17.75H4.1C2.6 17.75 2 18.07 2 18.865V20.885C2 21.68 2.6 22 4.1 22H19.9C21.4 22 22 21.68 22 20.885V18.865C22 18.07 21.4 17.75 19.9 17.75Z" stroke="currentColor" stroke-width="1.5" stroke-linecap="round" stroke-linejoin="round"/>
<path d="M19.9 2H4.1C2.6 2 2 2.32 2 3.115V5.135C2 5.93 2.6 6.25 4.1 6.25H19.9C21.4 6.25 22 5.93 22 5.135V3.115C22 2.32 21.4 2 19.9 2Z" stroke="currentColor" stroke-width="1.5" stroke-linecap="round" stroke-linejoin="round"/>
</svg>

<svg xmlns="http://www.w3.org/2000/svg" width="20" height="20" fill="none" viewBox="0 0 24 24">
  <path stroke="currentcolor" stroke-linecap="round" stroke-linejoin="round" stroke-width="1.5" d="M19.9 9.88H4.1c-1.5 0-2.1.31-2.1 1.11v2.02c0 .8.6 1.12 2.1 1.12h15.8c1.5 0 2.1-.33 2.1-1.12v-2.02c0-.8-.6-1.12-2.1-1.12m0 7.88H4.1c-1.5 0-2.1.32-2.1 1.11v2.03c0 .79.6 1.11 2.1 1.11h15.8c1.5 0 2.1-.32 2.1-1.11v-2.03c0-.79-.6-1.11-2.1-1.11M19.9 2H4.1C2.6 2 2 2.32 2 3.12v2.01c0 .8.6 1.12 2.1 1.12h15.8c1.5 0 2.1-.32 2.1-1.12v-2c0-.8-.6-1.12-2.1-1.12"/>
</svg>
